X:6022
T:Fred Pidgeon's No. 2
T:Fred Pigeon's No 2
R:Polka
C:Trad.
O:England, Devon
Z:Paul Hardy's Session Tunebook 2015 (see www.paulhardy.net). Creative Commons cc by-nc-sa licenced.
M:4/4
L:1/8
Q:1/4=150
K:G
Bc|"G" d2G2 G2 AB|"C" c2E2 E2G2|"D"FGAB cBAc|"G" e2d2 "D"dc Bc|"G" d2G2 G2 AB|"C" c2E2 E2G2|"D7" FGAB c2F2|"G" A2 G2G2:|
|:ef|"G" g2g2 g2 ag|"C" f2e2 e3B|"Am" c2c2 cBAc|"D" e2d2 d2 ef|"G" g2g2 g2 ag|"C" f2e2 e3G|"D7" FGAB c2F2|"G" A2 G2G2:|

